T: Green Forever
M: 6/8
L: 1/8
K: Gmaj
BGG AGE | DGG AGE | DGG AGA | Bdd edc |BGG AGE | DGG AGE | DGG AGA | B.G.G G2 :|Bdd Acc | Bdd BGE | DGG AGA | BAA ABc |Bdd Acc | Bdd BGE | DGG AGA | B.G.G G2 :|
